components/Common/Svg/svgs/apps.svg

<svg width="40" height="40" viewBox="0 0 40 40" fill="none" xmlns="http://www.w3.org/2000/svg">
<path fill-rule="evenodd" clip-rule="evenodd" d="M6.08958 2.9985H15.3627C17.0674 2.9985 18.4536 4.38475 18.4537 6.08955V15.3626C18.4537 17.0674 17.0674 18.4537 15.3627 18.4537H6.08958C4.38479 18.4537 2.99854 17.0673 2.99854 15.3626V6.08955C2.99854 4.38475 4.38479 2.9985 6.08958 2.9985ZM15.3627 16.9081C16.2146 16.9081 16.9081 16.2146 16.9081 15.3626V6.08955C16.9081 5.23758 16.2146 4.54406 15.3627 4.54406H6.08958C5.23762 4.54406 4.5441 5.23758 4.5441 6.08955V15.3626C4.5441 16.2146 5.23762 16.9081 6.08958 16.9081H15.3627ZM24.6389 2.9985H33.912C35.6167 2.9985 37.0029 4.38475 37.003 6.08955V15.3626C37.003 17.0674 35.6167 18.4537 33.912 18.4537H24.6389C22.9341 18.4537 21.5479 17.0673 21.5479 15.3626V6.08955C21.5479 4.38475 22.9341 2.9985 24.6389 2.9985ZM33.912 16.9081C34.7639 16.9081 35.4575 16.2146 35.4575 15.3626V6.08955C35.4575 5.23758 34.7639 4.54406 33.912 4.54406H24.6389C23.7869 4.54406 23.0934 5.23758 23.0934 6.08955V15.3626C23.0934 16.2146 23.7869 16.9081 24.6389 16.9081H33.912ZM15.3627 21.5448H6.08958C4.38479 21.5448 2.99854 22.9311 2.99854 24.6359V33.909C2.99854 35.6137 4.38479 37 6.08958 37H15.3627C17.0674 37 18.4537 35.6138 18.4537 33.909V24.6359C18.4536 22.9311 17.0674 21.5448 15.3627 21.5448ZM16.9081 33.909C16.9081 34.7609 16.2146 35.4545 15.3627 35.4545H6.08958C5.23762 35.4545 4.5441 34.7609 4.5441 33.909V24.6359C4.5441 23.7839 5.23762 23.0904 6.08958 23.0904H15.3627C16.2146 23.0904 16.9081 23.7839 16.9081 24.6359V33.909ZM30.0422 28.4996H33.1333C33.5604 28.4996 33.906 28.8452 33.906 29.2723C33.906 29.6995 33.5604 30.0451 33.1333 30.0451H30.0423V33.1361C30.0423 33.5633 29.6966 33.9089 29.2695 33.9089C28.8424 33.9089 28.4967 33.5633 28.4967 33.1361V30.0452H25.4056C24.9785 30.0452 24.6328 29.6995 24.6328 29.2724C24.6328 28.8452 24.9785 28.4996 25.4056 28.4996H28.4966V25.4086C28.4966 24.9814 28.8423 24.6358 29.2694 24.6358C29.6966 24.6358 30.0422 24.9814 30.0422 25.4086V28.4996Z" fill="#161616"/>
<path fill-rule="evenodd" clip-rule="evenodd" d="M6.08958 2.7485H15.3627C17.2055 2.7485 18.7036 4.24668 18.7037 6.08955V15.3626C18.7037 17.2055 17.2054 18.7037 15.3627 18.7037H6.08958C4.24671 18.7037 2.74854 17.2054 2.74854 15.3626V6.08955C2.74854 4.24668 4.24672 2.7485 6.08958 2.7485ZM15.3627 16.6581C16.0765 16.6581 16.6581 16.0765 16.6581 15.3626V6.08955C16.6581 5.37565 16.0765 4.79406 15.3627 4.79406H6.08958C5.37569 4.79406 4.7941 5.37565 4.7941 6.08955V15.3626C4.7941 16.0765 5.37569 16.6581 6.08958 16.6581H15.3627ZM24.6389 2.7485H33.912C35.7548 2.7485 37.2529 4.24668 37.253 6.08955V15.3626C37.253 17.2055 35.7548 18.7037 33.912 18.7037H24.6389C22.796 18.7037 21.2979 17.2054 21.2979 15.3626V6.08955C21.2979 4.24668 22.796 2.7485 24.6389 2.7485ZM33.912 16.6581C34.6259 16.6581 35.2075 16.0765 35.2075 15.3626V6.08955C35.2075 5.37565 34.6259 4.79406 33.912 4.79406H24.6389C23.925 4.79406 23.3434 5.37565 23.3434 6.08955V15.3626C23.3434 16.0765 23.925 16.6581 24.6389 16.6581H33.912ZM6.08958 21.2948H15.3627C17.2055 21.2948 18.7036 22.793 18.7037 24.6359V33.909C18.7037 35.7518 17.2054 37.25 15.3627 37.25H6.08958C4.24671 37.25 2.74854 35.7518 2.74854 33.909V24.6359C2.74854 22.793 4.24672 21.2948 6.08958 21.2948ZM15.3627 35.2045C16.0765 35.2045 16.6581 34.6229 16.6581 33.909V24.6359C16.6581 23.922 16.0765 23.3404 15.3627 23.3404H6.08958C5.37569 23.3404 4.7941 23.922 4.7941 24.6359V33.909C4.7941 34.6229 5.37569 35.2045 6.08958 35.2045H15.3627ZM30.2922 28.2496H33.1333C33.6984 28.2496 34.156 28.7072 34.156 29.2723C34.156 29.8375 33.6985 30.2951 33.1333 30.2951H30.2923V33.1361C30.2923 33.7014 29.8347 34.1589 29.2695 34.1589C28.7043 34.1589 28.2467 33.7014 28.2467 33.1361V30.2952H25.4056C24.8404 30.2952 24.3828 29.8376 24.3828 29.2724C24.3828 28.7072 24.8404 28.2496 25.4056 28.2496H28.2466V25.4086C28.2466 24.8433 28.7042 24.3858 29.2694 24.3858C29.8346 24.3858 30.2922 24.8433 30.2922 25.4086V28.2496ZM15.3627 2.9985H6.08958C4.38479 2.9985 2.99854 4.38475 2.99854 6.08955V15.3626C2.99854 17.0673 4.38479 18.4537 6.08958 18.4537H15.3627C17.0674 18.4537 18.4537 17.0674 18.4537 15.3626V6.08955C18.4536 4.38475 17.0674 2.9985 15.3627 2.9985ZM16.9081 15.3626C16.9081 16.2146 16.2146 16.9081 15.3627 16.9081H6.08958C5.23762 16.9081 4.5441 16.2146 4.5441 15.3626V6.08955C4.5441 5.23758 5.23762 4.54406 6.08958 4.54406H15.3627C16.2146 4.54406 16.9081 5.23758 16.9081 6.08955V15.3626ZM33.912 2.9985H24.6389C22.9341 2.9985 21.5479 4.38475 21.5479 6.08955V15.3626C21.5479 17.0673 22.9341 18.4537 24.6389 18.4537H33.912C35.6167 18.4537 37.003 17.0674 37.003 15.3626V6.08955C37.0029 4.38475 35.6167 2.9985 33.912 2.9985ZM35.4575 15.3626C35.4575 16.2146 34.7639 16.9081 33.912 16.9081H24.6389C23.7869 16.9081 23.0934 16.2146 23.0934 15.3626V6.08955C23.0934 5.23758 23.7869 4.54406 24.6389 4.54406H33.912C34.7639 4.54406 35.4575 5.23758 35.4575 6.08955V15.3626ZM6.08958 21.5448H15.3627C17.0674 21.5448 18.4536 22.9311 18.4537 24.6359V33.909C18.4537 35.6138 17.0674 37 15.3627 37H6.08958C4.38479 37 2.99854 35.6137 2.99854 33.909V24.6359C2.99854 22.9311 4.38479 21.5448 6.08958 21.5448ZM15.3627 35.4545C16.2146 35.4545 16.9081 34.7609 16.9081 33.909V24.6359C16.9081 23.7839 16.2146 23.0904 15.3627 23.0904H6.08958C5.23762 23.0904 4.5441 23.7839 4.5441 24.6359V33.909C4.5441 34.7609 5.23762 35.4545 6.08958 35.4545H15.3627ZM30.0422 28.4996V25.4086C30.0422 24.9814 29.6966 24.6358 29.2694 24.6358C28.8423 24.6358 28.4966 24.9814 28.4966 25.4086V28.4996H25.4056C24.9785 28.4996 24.6328 28.8452 24.6328 29.2724C24.6328 29.6995 24.9785 30.0452 25.4056 30.0452H28.4967V33.1361C28.4967 33.5633 28.8424 33.9089 29.2695 33.9089C29.6966 33.9089 30.0423 33.5633 30.0423 33.1361V30.0451H33.1333C33.5604 30.0451 33.906 29.6995 33.906 29.2723C33.906 28.8452 33.5604 28.4996 33.1333 28.4996H30.0422Z" fill="#161616"/>
</svg>

<svg width="40" height="40" viewBox="0 0 40 40" fill="none" xmlns="http://www.w3.org/2000/svg"><path fill-rule="evenodd" clip-rule="evenodd" d="M6.09 2.998h9.273a3.094 3.094 0 0 1 3.09 3.092v9.273a3.094 3.094 0 0 1-3.09 3.09H6.09a3.094 3.094 0 0 1-3.091-3.09V6.09a3.094 3.094 0 0 1 3.09-3.091Zm9.273 13.91c.852 0 1.545-.693 1.545-1.545V6.09c0-.852-.693-1.546-1.545-1.546H6.09c-.852 0-1.546.694-1.546 1.546v9.273c0 .852.694 1.545 1.546 1.545h9.273Zm9.276-13.91h9.273a3.094 3.094 0 0 1 3.091 3.092v9.273a3.094 3.094 0 0 1-3.091 3.09h-9.273a3.094 3.094 0 0 1-3.091-3.09V6.09a3.094 3.094 0 0 1 3.09-3.091Zm9.273 13.91c.852 0 1.546-.693 1.546-1.545V6.09c0-.852-.694-1.546-1.546-1.546h-9.273c-.852 0-1.546.694-1.546 1.546v9.273c0 .852.694 1.545 1.546 1.545h9.273Zm-18.55 4.637H6.09a3.094 3.094 0 0 0-3.091 3.09v9.274A3.094 3.094 0 0 0 6.089 37h9.274a3.094 3.094 0 0 0 3.09-3.091v-9.273a3.094 3.094 0 0 0-3.09-3.091Zm1.546 12.364c0 .852-.693 1.546-1.545 1.546H6.09a1.548 1.548 0 0 1-1.546-1.546v-9.273c0-.852.694-1.546 1.546-1.546h9.273c.852 0 1.545.694 1.545 1.546v9.273Zm13.134-5.41h3.091a.772.772 0 1 1 0 1.546h-3.09v3.091a.772.772 0 1 1-1.546 0v-3.09h-3.091a.772.772 0 1 1 0-1.546h3.09v-3.091a.772.772 0 1 1 1.546 0v3.09Z" fill="#161616"/><path fill-rule="evenodd" clip-rule="evenodd" d="M6.09 2.748h9.273a3.344 3.344 0 0 1 3.34 3.342v9.273a3.344 3.344 0 0 1-3.34 3.34H6.09a3.344 3.344 0 0 1-3.341-3.34V6.09a3.344 3.344 0 0 1 3.34-3.341Zm9.273 13.91c.713 0 1.295-.582 1.295-1.295V6.09c0-.714-.582-1.296-1.295-1.296H6.09c-.714 0-1.296.582-1.296 1.296v9.273c0 .713.582 1.295 1.296 1.295h9.273Zm9.276-13.91h9.273a3.344 3.344 0 0 1 3.341 3.342v9.273a3.344 3.344 0 0 1-3.341 3.34h-9.273a3.344 3.344 0 0 1-3.341-3.34V6.09a3.344 3.344 0 0 1 3.34-3.341Zm9.273 13.91c.714 0 1.296-.582 1.296-1.295V6.09c0-.714-.582-1.296-1.296-1.296h-9.273c-.714 0-1.296.582-1.296 1.296v9.273c0 .713.582 1.295 1.296 1.295h9.273ZM6.09 21.295h9.273a3.344 3.344 0 0 1 3.34 3.34v9.274a3.344 3.344 0 0 1-3.34 3.341H6.09a3.344 3.344 0 0 1-3.341-3.341v-9.273a3.344 3.344 0 0 1 3.34-3.341Zm9.273 13.91c.713 0 1.295-.582 1.295-1.296v-9.273c0-.714-.582-1.296-1.295-1.296H6.09c-.714 0-1.296.582-1.296 1.296v9.273c0 .714.582 1.296 1.296 1.296h9.273Zm14.93-6.955h2.84a1.022 1.022 0 1 1 0 2.045h-2.84v2.841a1.022 1.022 0 1 1-2.046 0v-2.84h-2.841a1.022 1.022 0 1 1 0-2.046h2.84v-2.841a1.022 1.022 0 1 1 2.046 0v2.84ZM15.362 2.998H6.09A3.094 3.094 0 0 0 2.999 6.09v9.273a3.094 3.094 0 0 0 3.09 3.09h9.274a3.094 3.094 0 0 0 3.09-3.09V6.09a3.094 3.094 0 0 0-3.09-3.091Zm1.545 12.365c0 .852-.693 1.545-1.545 1.545H6.09a1.548 1.548 0 0 1-1.546-1.545V6.09c0-.852.694-1.546 1.546-1.546h9.273c.852 0 1.545.694 1.545 1.546v9.273ZM33.912 2.999h-9.273a3.094 3.094 0 0 0-3.091 3.09v9.274a3.094 3.094 0 0 0 3.09 3.09h9.274a3.094 3.094 0 0 0 3.091-3.09V6.09a3.094 3.094 0 0 0-3.091-3.091Zm1.546 12.364c0 .852-.694 1.545-1.546 1.545h-9.273a1.547 1.547 0 0 1-1.546-1.545V6.09c0-.852.694-1.546 1.546-1.546h9.273c.852 0 1.546.694 1.546 1.546v9.273ZM6.09 21.545h9.273a3.094 3.094 0 0 1 3.09 3.09v9.274A3.094 3.094 0 0 1 15.364 37H6.09a3.094 3.094 0 0 1-3.091-3.091v-9.273a3.094 3.094 0 0 1 3.09-3.091Zm9.273 13.91c.852 0 1.545-.694 1.545-1.546v-9.273c0-.852-.693-1.546-1.545-1.546H6.09c-.852 0-1.546.694-1.546 1.546v9.273c0 .852.694 1.546 1.546 1.546h9.273Zm14.68-6.955v-3.091a.772.772 0 1 0-1.546 0v3.09h-3.091a.772.772 0 1 0 0 1.546h3.09v3.091a.772.772 0 1 0 1.546 0v-3.09h3.091a.772.772 0 1 0 0-1.546h-3.09Z" fill="#161616"/></svg>
